flaticon/gastronomy/jelly.svg

<svg xmlns="http://www.w3.org/2000/svg" width="32" height="32" viewBox="0 0 24 24">
    <path d="M8.125 10.285156C6.941406 10.285156 5.980469 11.246094 5.980469 12.429688 5.980469 13.609375 6.941406 14.570312 8.125 14.570312 9.304688 14.570312 10.265625 13.609375 10.265625 12.429688 10.265625 11.246094 9.304688 10.285156 8.125 10.285156zM8.125 13.714844C7.414062 13.714844 6.839844 13.136719 6.839844 12.429688 6.839844 11.71875 7.414062 11.144531 8.125 11.144531 8.832031 11.144531 9.410156 11.71875 9.410156 12.429688 9.410156 13.136719 8.832031 13.714844 8.125 13.714844zM16.695312 12C15.75 12 14.980469 12.769531 14.980469 13.714844 14.980469 14.660156 15.75 15.429688 16.695312 15.429688 17.640625 15.429688 18.410156 14.660156 18.410156 13.714844 18.410156 12.769531 17.640625 12 16.695312 12zM16.695312 14.570312C16.222656 14.570312 15.839844 14.1875 15.839844 13.714844 15.839844 13.242188 16.222656 12.855469 16.695312 12.855469 17.167969 12.855469 17.554688 13.242188 17.554688 13.714844 17.554688 14.1875 17.167969 14.570312 16.695312 14.570312zM13.265625 16.285156C13.265625 15.578125 12.691406 15 11.980469 15 11.273438 15 10.695312 15.578125 10.695312 16.285156 10.695312 16.996094 11.273438 17.570312 11.980469 17.570312 12.691406 17.570312 13.265625 16.996094 13.265625 16.285156zM11.554688 16.285156C11.554688 16.050781 11.746094 15.855469 11.980469 15.855469 12.21875 15.855469 12.410156 16.050781 12.410156 16.285156 12.410156 16.523438 12.21875 16.714844 11.980469 16.714844 11.746094 16.714844 11.554688 16.523438 11.554688 16.285156zM8.125 18.429688C7.179688 18.429688 6.410156 19.199219 6.410156 20.144531 6.410156 21.089844 7.179688 21.855469 8.125 21.855469 9.070312 21.855469 9.839844 21.089844 9.839844 20.144531 9.839844 19.199219 9.070312 18.429688 8.125 18.429688zM8.125 21C7.652344 21 7.265625 20.617188 7.265625 20.144531 7.265625 19.671875 7.652344 19.285156 8.125 19.285156 8.597656 19.285156 8.980469 19.671875 8.980469 20.144531 8.980469 20.617188 8.597656 21 8.125 21zM16.695312 18.429688C15.988281 18.429688 15.410156 19.003906 15.410156 19.714844 15.410156 20.421875 15.988281 21 16.695312 21 17.40625 21 17.980469 20.421875 17.980469 19.714844 17.980469 19.003906 17.40625 18.429688 16.695312 18.429688zM16.695312 20.144531C16.460938 20.144531 16.265625 19.949219 16.265625 19.714844 16.265625 19.476562 16.460938 19.285156 16.695312 19.285156 16.933594 19.285156 17.125 19.476562 17.125 19.714844 17.125 19.949219 16.933594 20.144531 16.695312 20.144531zM11.675781 12.539062L12.761719 13.082031C12.820312 13.113281 12.886719 13.128906 12.953125 13.128906 13.109375 13.128906 13.261719 13.042969 13.335938 12.890625 13.441406 12.679688 13.355469 12.421875 13.144531 12.316406L12.058594 11.773438C11.847656 11.667969 11.589844 11.753906 11.484375 11.964844 11.378906 12.175781 11.464844 12.433594 11.675781 12.539062zM15.839844 17.570312C15.949219 17.570312 16.058594 17.53125 16.140625 17.445312 16.308594 17.277344 16.308594 17.007812 16.140625 16.839844L15.285156 15.984375C15.117188 15.816406 14.847656 15.816406 14.679688 15.984375 14.511719 16.148438 14.511719 16.421875 14.679688 16.589844L15.535156 17.445312C15.621094 17.53125 15.730469 17.570312 15.839844 17.570312zM12.847656 19.972656L11.699219 20.355469C11.472656 20.429688 11.351562 20.675781 11.429688 20.898438 11.488281 21.078125 11.65625 21.191406 11.835938 21.191406 11.878906 21.191406 11.925781 21.183594 11.96875 21.167969L13.121094 20.785156C13.34375 20.710938 13.464844 20.46875 13.390625 20.242188 13.316406 20.019531 13.074219 19.898438 12.847656 19.972656zM6.714844 17.015625L7.570312 16.160156C7.738281 15.992188 7.738281 15.722656 7.570312 15.554688 7.402344 15.386719 7.132812 15.386719 6.964844 15.554688L6.105469 16.410156C5.941406 16.578125 5.941406 16.851562 6.105469 17.015625 6.191406 17.101562 6.300781 17.144531 6.410156 17.144531 6.519531 17.144531 6.628906 17.101562 6.714844 17.015625zM14.648438 4.726562C14.421875 4.675781 14.191406 4.816406 14.136719 5.046875 14.082031 5.273438 14.226562 5.503906 14.457031 5.558594 14.484375 5.566406 17.515625 6.300781 17.988281 8.65625 18.03125 8.859375 18.210938 9 18.410156 9 18.4375 9 18.464844 8.996094 18.496094 8.992188 18.726562 8.945312 18.875 8.71875 18.832031 8.484375 18.246094 5.597656 14.796875 4.757812 14.648438 4.726562zM14.648438 4.726562"/>
    <path d="M 18.644531 4.730469 C 18.023438 4.433594 17.679688 4.253906 17.589844 3.871094 C 17.621094 3.871094 17.648438 3.863281 17.679688 3.855469 C 17.726562 3.851562 17.769531 3.84375 17.816406 3.835938 C 17.855469 3.824219 17.898438 3.808594 17.9375 3.796875 C 17.980469 3.78125 18.019531 3.765625 18.058594 3.75 C 18.101562 3.730469 18.136719 3.707031 18.171875 3.683594 C 18.210938 3.664062 18.246094 3.644531 18.28125 3.617188 C 18.316406 3.589844 18.347656 3.5625 18.378906 3.53125 C 18.410156 3.503906 18.441406 3.476562 18.46875 3.445312 C 18.5 3.410156 18.527344 3.371094 18.554688 3.335938 C 18.578125 3.304688 18.601562 3.273438 18.625 3.238281 C 18.648438 3.195312 18.671875 3.148438 18.691406 3.101562 C 18.707031 3.066406 18.726562 3.035156 18.738281 3 C 18.761719 2.945312 18.773438 2.882812 18.789062 2.824219 C 18.796875 2.792969 18.808594 2.765625 18.8125 2.730469 C 18.828125 2.636719 18.839844 2.539062 18.839844 2.441406 L 18.839844 1.433594 C 18.839844 0.617188 18.261719 0 17.496094 0 L 6.464844 0 C 5.699219 0 5.125 0.617188 5.125 1.433594 L 5.125 2.441406 C 5.125 3.257812 5.703125 3.875 6.464844 3.875 L 6.515625 3.875 C 6.433594 4.230469 6.109375 4.414062 5.425781 4.726562 C 4.410156 5.195312 3.019531 5.835938 3.019531 8.1875 L 3.019531 19.355469 C 3.019531 21.914062 5.101562 24 7.664062 24 L 16.335938 24 C 18.898438 24 20.980469 21.914062 20.980469 19.351562 L 20.980469 8.1875 C 20.980469 5.839844 19.632812 5.199219 18.644531 4.730469 Z M 17.980469 1.433594 L 17.980469 2.441406 C 17.980469 2.476562 17.980469 2.511719 17.972656 2.546875 C 17.941406 2.796875 17.789062 3.019531 17.496094 3.019531 L 16.695312 3.019531 L 16.695312 0.855469 L 17.496094 0.855469 C 17.832031 0.855469 17.980469 1.148438 17.980469 1.433594 Z M 8.125 0.855469 L 8.980469 0.855469 L 8.980469 3.019531 L 8.125 3.019531 Z M 9.839844 0.855469 L 10.695312 0.855469 L 10.695312 3.019531 L 9.839844 3.019531 Z M 11.554688 0.855469 L 12.410156 0.855469 L 12.410156 3.019531 L 11.554688 3.019531 Z M 13.265625 0.855469 L 14.125 0.855469 L 14.125 3.019531 L 13.265625 3.019531 Z M 14.980469 0.855469 L 15.839844 0.855469 L 15.839844 3.019531 L 14.980469 3.019531 Z M 5.980469 1.433594 C 5.980469 1.148438 6.132812 0.855469 6.464844 0.855469 L 7.265625 0.855469 L 7.265625 3.019531 L 6.464844 3.019531 C 6.171875 3.019531 6.023438 2.796875 5.988281 2.546875 C 5.984375 2.511719 5.980469 2.476562 5.980469 2.441406 Z M 20.125 19.351562 C 20.125 21.441406 18.425781 23.144531 16.335938 23.144531 L 7.664062 23.144531 C 5.574219 23.144531 3.875 21.441406 3.875 19.351562 L 3.875 12.710938 C 3.875 11.558594 4.371094 10.453125 5.234375 9.6875 C 5.980469 9.019531 6.945312 8.65625 7.9375 8.65625 C 8.09375 8.65625 8.25 8.667969 8.40625 8.683594 C 9.359375 8.796875 10.289062 9.003906 11.164062 9.304688 L 11.164062 9.308594 C 11.300781 9.351562 11.433594 9.410156 11.5625 9.46875 C 12.148438 9.734375 13.75 10.347656 15.921875 10.28125 C 17.042969 10.238281 18.097656 10.652344 18.898438 11.429688 C 19.6875 12.199219 20.125 13.226562 20.125 14.332031 Z M 19.492188 10.8125 C 18.523438 9.875 17.242188 9.398438 15.894531 9.421875 C 13.84375 9.492188 12.332031 8.878906 11.914062 8.6875 C 11.761719 8.617188 11.601562 8.550781 11.441406 8.496094 C 10.507812 8.171875 9.519531 7.949219 8.503906 7.832031 C 7.109375 7.671875 5.710938 8.113281 4.664062 9.046875 C 4.359375 9.316406 4.101562 9.621094 3.875 9.953125 L 3.875 8.1875 C 3.875 6.382812 4.804688 5.957031 5.785156 5.503906 C 6.488281 5.183594 7.269531 4.8125 7.375 3.875 L 16.734375 3.875 C 16.839844 4.808594 17.597656 5.179688 18.277344 5.503906 C 19.226562 5.953125 20.125 6.378906 20.125 8.1875 L 20.125 11.558594 C 19.941406 11.292969 19.730469 11.042969 19.492188 10.8125 Z M 19.492188 10.8125"/>
</svg>

<svg xmlns="http://www.w3.org/2000/svg" width="32" height="32" viewBox="0 0 24 24">
    <path d="M8.125 10.285c-1.184 0-2.145.961-2.145 2.145a2.144 2.144 0 0 0 4.285 0c0-1.184-.96-2.145-2.14-2.145zm0 3.43a1.286 1.286 0 0 1 0-2.57 1.286 1.286 0 0 1 0 2.57zm0 0M16.695 12c-.945 0-1.715.77-1.715 1.715 0 .945.77 1.715 1.715 1.715.946 0 1.715-.77 1.715-1.715 0-.945-.77-1.715-1.715-1.715zm0 2.57a.859.859 0 0 1 0-1.715c.473 0 .86.387.86.86a.859.859 0 0 1-.86.855zm0 0M13.266 16.285a1.286 1.286 0 0 0-2.57 0 1.286 1.286 0 0 0 2.57 0zm-1.711 0a.43.43 0 0 1 .425-.43.43.43 0 0 1 .43.43.428.428 0 1 1-.855 0zm0 0M8.125 18.43c-.945 0-1.715.77-1.715 1.715 0 .945.77 1.71 1.715 1.71.945 0 1.715-.765 1.715-1.71 0-.946-.77-1.715-1.715-1.715zm0 2.57a.859.859 0 0 1-.86-.855c0-.473.387-.86.86-.86a.859.859 0 0 1 0 1.715zm0 0M16.695 18.43a1.286 1.286 0 0 0 0 2.57 1.286 1.286 0 0 0 0-2.57zm0 1.715a.434.434 0 0 1-.43-.43.43.43 0 0 1 .43-.43c.239 0 .43.192.43.43a.43.43 0 0 1-.43.43zm0 0M11.676 12.54l1.086.542a.425.425 0 0 0 .574-.191.429.429 0 0 0-.191-.575l-1.086-.543a.429.429 0 0 0-.383.766zm0 0M15.84 17.57a.427.427 0 0 0 .3-.73l-.855-.856a.427.427 0 0 0-.605 0 .427.427 0 0 0 0 .606l.855.855a.425.425 0 0 0 .305.125zm0 0M12.848 19.973l-1.149.382a.425.425 0 0 0-.27.543.427.427 0 0 0 .54.27l1.152-.383a.43.43 0 0 0-.273-.812zm0 0M6.715 17.016l.855-.856a.427.427 0 0 0 0-.605.427.427 0 0 0-.605 0l-.86.855a.434.434 0 0 0 0 .606.43.43 0 0 0 .305.129.43.43 0 0 0 .305-.13zm0 0M14.648 4.727a.427.427 0 0 0-.191.832c.027.007 3.059.742 3.531 3.097A.433.433 0 0 0 18.41 9c.027 0 .055-.004.086-.008a.435.435 0 0 0 .336-.508c-.586-2.886-4.035-3.726-4.184-3.757zm0 0"/>
    <path d="M18.645 4.73c-.622-.296-.965-.476-1.055-.859.031 0 .058-.008.09-.016.047-.003.09-.011.136-.02.04-.01.082-.026.122-.038.042-.016.082-.031.12-.047.044-.02.079-.043.114-.066.039-.02.074-.04.11-.067.034-.027.066-.054.097-.086a.934.934 0 0 0 .09-.086c.031-.035.058-.074.086-.11.023-.03.047-.062.07-.097.023-.043.047-.09.066-.136.016-.036.036-.067.047-.102.024-.055.035-.117.051-.176.008-.031.02-.058.023-.094.016-.093.028-.19.028-.289V1.434C18.84.617 18.262 0 17.496 0H6.465c-.766 0-1.34.617-1.34 1.434V2.44c0 .817.578 1.434 1.34 1.434h.05c-.081.355-.406.54-1.09.852-1.015.468-2.405 1.109-2.405 3.46v11.168A4.65 4.65 0 0 0 7.664 24h8.672a4.651 4.651 0 0 0 4.644-4.648V8.187c0-2.347-1.347-2.988-2.335-3.457zm-.665-3.296V2.44c0 .036 0 .07-.007.106-.032.25-.184.473-.477.473h-.8V.855h.8c.336 0 .484.293.484.579zM8.125.855h.855V3.02h-.855zm1.715 0h.855V3.02H9.84zm1.715 0h.855V3.02h-.855zm1.71 0h.86V3.02h-.86zm1.715 0h.86V3.02h-.86zm-9 .579c0-.286.153-.579.485-.579h.8V3.02h-.8c-.293 0-.442-.223-.477-.473a.958.958 0 0 1-.008-.106zm14.145 17.918c0 2.09-1.7 3.793-3.79 3.793h-8.67a3.796 3.796 0 0 1-3.79-3.793V12.71a4.05 4.05 0 0 1 1.36-3.024 4.053 4.053 0 0 1 3.171-1.003c.953.113 1.883.32 2.758.62v.005c.137.043.27.101.399.16.585.265 2.187.879 4.359.812a4.018 4.018 0 0 1 2.976 1.149 4.02 4.02 0 0 1 1.227 2.902zm-.633-8.54c-.969-.937-2.25-1.414-3.597-1.39-2.051.07-3.563-.543-3.98-.735a4.98 4.98 0 0 0-.474-.19 13.781 13.781 0 0 0-2.937-.665 4.926 4.926 0 0 0-3.84 1.215c-.305.27-.562.574-.789.906V8.188c0-1.805.93-2.231 1.91-2.684.703-.32 1.485-.691 1.59-1.629h9.36c.105.934.863 1.305 1.542 1.629.95.45 1.848.875 1.848 2.684v3.37a4.962 4.962 0 0 0-.633-.745zm0 0"/>
</svg>
